svg/SJJB-OpenStreetMapIcons/shopping/hairdresser.svg

<?xml version="1.0" encoding="UTF-8" standalone="no"?>
<!-- Created with Inkscape (http://www.inkscape.org/) -->

<svg
   xmlns:dc="http://purl.org/dc/elements/1.1/"
   xmlns:cc="http://creativecommons.org/ns#"
   xmlns:rdf="http://www.w3.org/1999/02/22-rdf-syntax-ns#"
   xmlns:svg="http://www.w3.org/2000/svg"
   xmlns="http://www.w3.org/2000/svg"
   xmlns:sodipodi="http://sodipodi.sourceforge.net/DTD/sodipodi-0.dtd"
   xmlns:inkscape="http://www.inkscape.org/namespaces/inkscape"
   version="1.0"
   width="580"
   height="580"
   id="svg2"
   sodipodi:version="0.32"
   inkscape:version="0.48.0 r9654"
   sodipodi:docname="shopping_hairdresser.svg"
   inkscape:output_extension="org.inkscape.output.svg.inkscape">
  <metadata
     id="metadata2975">
    <rdf:RDF>
      <cc:Work
         rdf:about="">
        <dc:format>image/svg+xml</dc:format>
        <dc:type
           rdf:resource="http://purl.org/dc/dcmitype/StillImage" />
        <cc:license
           rdf:resource="http://web.resource.org/cc/PublicDomain" />
        <dc:language>en</dc:language>
      </cc:Work>
    </rdf:RDF>
  </metadata>
  <sodipodi:namedview
     inkscape:window-height="1003"
     inkscape:window-width="1920"
     inkscape:pageshadow="2"
     inkscape:pageopacity="0.0"
     guidetolerance="10.0"
     gridtolerance="10.0"
     objecttolerance="10.0"
     borderopacity="1.0"
     bordercolor="#666666"
     pagecolor="#ffffff"
     id="base"
     inkscape:zoom="0.92167712"
     inkscape:cx="430.43217"
     inkscape:cy="288.5487"
     inkscape:window-x="0"
     inkscape:window-y="24"
     inkscape:current-layer="svg2"
     showgrid="false"
     inkscape:window-maximized="1" />
  <defs
     id="defs4">
    <inkscape:perspective
       sodipodi:type="inkscape:persp3d"
       inkscape:vp_x="0 : 290 : 1"
       inkscape:vp_y="0 : 1000 : 0"
       inkscape:vp_z="580 : 290 : 1"
       inkscape:persp3d-origin="290 : 193.33333 : 1"
       id="perspective2441" />
    <inkscape:perspective
       id="perspective3452"
       inkscape:persp3d-origin="30 : 20 : 1"
       inkscape:vp_z="60 : 30 : 1"
       inkscape:vp_y="0 : 1000 : 0"
       inkscape:vp_x="0 : 30 : 1"
       sodipodi:type="inkscape:persp3d" />
    <symbol
       viewBox="244.5 110 489 219.9"
       id="symbol-university">
      <path
         id="path4460"
         d="M79,43l57,119c0,0,21-96,104-96s124,106,124,106l43-133l82-17L0,17L79,43z" />
      <path
         id="path4462"
         d="M94,176l-21,39"
         stroke-width="20"
         stroke="#000000"
         fill="none" />
      <path
         id="path4464"
         d="M300,19c0,10.5-22.6,19-50.5,19S199,29.5,199,19s22.6-19,50.5-19S300,8.5,300,19z" />
      <path
         id="path4466"
         d="M112,216l-16-38L64,88c0,0-9-8-4-35s16-24,16-24"
         stroke-width="20"
         stroke="#000000"
         ill="none" />
    </symbol>
    <inkscape:perspective
       id="perspective4471"
       inkscape:persp3d-origin="372.04724 : 350.78739 : 1"
       inkscape:vp_z="744.09448 : 526.18109 : 1"
       inkscape:vp_y="0 : 1000 : 0"
       inkscape:vp_x="0 : 526.18109 : 1"
       sodipodi:type="inkscape:persp3d" />
    <inkscape:perspective
       id="perspective4668"
       inkscape:persp3d-origin="6 : 4 : 1"
       inkscape:vp_z="12 : 6 : 1"
       inkscape:vp_y="0 : 1000 : 0"
       inkscape:vp_x="0 : 6 : 1"
       sodipodi:type="inkscape:persp3d" />
    <inkscape:perspective
       id="perspective2918"
       inkscape:persp3d-origin="0.5 : 0.33333333 : 1"
       inkscape:vp_z="1 : 0.5 : 1"
       inkscape:vp_y="0 : 1000 : 0"
       inkscape:vp_x="0 : 0.5 : 1"
       sodipodi:type="inkscape:persp3d" />
  </defs>
  <g
     id="g1327">
    <path
       d="M 66.275,1.768 C 24.94,1.768 1.704,23.139 1.704,66.804 L 1.704,516.927 C 1.704,557.771 22.599,579.156 63.896,579.156 L 515.92,579.156 C 557.227,579.156 578.149,558.841 578.149,516.927 L 578.149,66.804 C 578.149,24.203 557.227,1.768 514.628,1.768 C 514.624,1.768 66.133,1.625 66.275,1.768 z "
       style="fill:#111;stroke:#eee;stroke-width:3.40799999"
       id="path1329" />
  </g>
  <g
     id="layer3"
     inkscape:label="Layout"
     style="display:none;stroke:#757575;stroke-opacity:1"
     transform="matrix(48.14969,0,0,48.14969,-536.27327,-33.306752)">
    <rect
       style="fill:none;stroke:#757575;stroke-width:0.10000000000000001;stroke-miterlimit:4;stroke-dasharray:none;stroke-opacity:1;display:inline"
       id="rect4134"
       width="10"
       height="10"
       x="1"
       y="1" />
    <rect
       style="fill:none;stroke:#757575;stroke-width:0.10000000000000001;stroke-miterlimit:4;stroke-dasharray:none;stroke-opacity:1;display:inline"
       id="rect4136"
       width="8"
       height="8"
       x="2"
       y="2" />
  </g>
  <path
     inkscape:connector-curvature="0"
     style="fill:#ffffff;fill-opacity:1;fill-rule:evenodd;stroke:#ffffff;stroke-width:9.30612183;stroke-linecap:round;stroke-linejoin:round;stroke-miterlimit:4;stroke-opacity:1;stroke-dasharray:none"
     d="m 269.4171,65.308546 c 0,0 -118.57459,-14.961781 -132.45917,-7.351678 C 123.07332,65.566972 44.653578,471.69884 54.457144,488.1492 64.260717,504.59959 193.36178,503.7505 193.36178,503.7505 L 59.170459,484.64802 141.54232,61.460974 269.4171,65.308546 z"
     id="path3292"
     sodipodi:nodetypes="csscccc" />
  <path
     inkscape:connector-curvature="0"
     sodipodi:nodetypes="cccc"
     id="path3296"
     d="m 132.80066,97.263707 128.636,17.401583 -130.93189,-2.47792 2.29589,-14.923663 z"
     style="fill:#ffffff;fill-opacity:1;fill-rule:evenodd;stroke:#ffffff;stroke-width:6.20408106;stroke-linecap:square;stroke-linejoin:miter;stroke-miterlimit:4;stroke-opacity:1;stroke-dasharray:none" />
  <path
     inkscape:connector-curvature="0"
     style="fill:#ffffff;fill-opacity:1;fill-rule:evenodd;stroke:#ffffff;stroke-width:6.20408106;stroke-linecap:square;stroke-linejoin:miter;stroke-miterlimit:4;stroke-opacity:1;stroke-dasharray:none"
     d="m 125.41411,145.21399 128.63598,17.40159 -130.93188,-2.47792 2.2959,-14.92367 z"
     id="path3298"
     sodipodi:nodetypes="cccc" />
  <path
     inkscape:connector-curvature="0"
     sodipodi:nodetypes="cccc"
     id="path3304"
     d="m 116.77269,193.16428 128.636,17.40156 -130.93187,-2.4779 2.29587,-14.92366 z"
     style="fill:#ffffff;fill-opacity:1;fill-rule:evenodd;stroke:#ffffff;stroke-width:6.20408106;stroke-linecap:square;stroke-linejoin:miter;stroke-miterlimit:4;stroke-opacity:1;stroke-dasharray:none" />
  <path
     inkscape:connector-curvature="0"
     style="fill:#ffffff;fill-opacity:1;fill-rule:evenodd;stroke:#ffffff;stroke-width:6.20408106;stroke-linecap:square;stroke-linejoin:miter;stroke-miterlimit:4;stroke-opacity:1;stroke-dasharray:none"
     d="m 107.25404,241.11453 128.63599,17.40159 -130.93188,-2.47793 2.29589,-14.92366 z"
     id="path3310"
     sodipodi:nodetypes="cccc" />
  <path
     inkscape:connector-curvature="0"
     style="fill:#ffffff;fill-opacity:1;fill-rule:evenodd;stroke:#ffffff;stroke-width:6.20408106;stroke-linecap:square;stroke-linejoin:miter;stroke-miterlimit:4;stroke-opacity:1;stroke-dasharray:none"
     d="M 98.40004,289.06481 227.03603,306.46638 96.104152,303.98847 98.40004,289.06481 z"
     id="path3318"
     sodipodi:nodetypes="cccc" />
  <path
     inkscape:connector-curvature="0"
     style="fill:#ffffff;fill-opacity:1;fill-rule:evenodd;stroke:#ffffff;stroke-width:6.20408106;stroke-linecap:square;stroke-linejoin:miter;stroke-miterlimit:4;stroke-opacity:1;stroke-dasharray:none"
     d="M 90.552909,337.01508 219.18891,354.41664 88.257027,351.93875 90.552909,337.01508 z"
     id="path3326"
     sodipodi:nodetypes="cccc" />
  <path
     inkscape:connector-curvature="0"
     sodipodi:nodetypes="cccc"
     id="path3328"
     d="M 79.065751,384.96533 207.70174,402.36692 76.769868,399.88899 79.065751,384.96533 z"
     style="fill:#ffffff;fill-opacity:1;fill-rule:evenodd;stroke:#ffffff;stroke-width:6.20408106;stroke-linecap:square;stroke-linejoin:miter;stroke-miterlimit:4;stroke-opacity:1;stroke-dasharray:none" />
  <path
     inkscape:connector-curvature="0"
     style="fill:#ffffff;fill-opacity:1;fill-rule:evenodd;stroke:#ffffff;stroke-width:6.20408106;stroke-linecap:square;stroke-linejoin:miter;stroke-miterlimit:4;stroke-opacity:1;stroke-dasharray:none"
     d="M 71.645842,432.91562 200.28184,450.31721 69.34996,447.8393 71.645842,432.91562 z"
     id="path3330"
     sodipodi:nodetypes="cccc" />
  <g
     id="g3380"
     transform="matrix(1.2390707,0,0,1.2390707,-109.93184,-67.239453)">
    <path
       sodipodi:nodetypes="csssssccccccssc"
       id="path3363"
       d="M 378.03125,82.59375 C 374.68734,82.909236 391.20265,188.04979 397.92573,213.92933 C 408.17485,253.3818 398.2824,218.60051 413.3125,281.53125 C 435.33877,373.75492 458.40691,449.44053 468.56743,460.3802 C 483.93071,476.92159 513.57753,471.487 523.04665,444.91874 C 530.1555,424.97288 534.08319,397.32911 509.48876,379.96491 C 485.15085,362.78182 460.70887,381.61622 460.70888,381.61623 L 379,82.84375 C 378.86633,82.628407 378.50895,82.548681 378.03125,82.59375 z M 490.9375,383.34375 C 505.34952,383.37921 520.0192,400.22015 520.01494,421.61376 L 520.01494,421.67626 C 519.99103,443.08842 505.26829,460.97299 490.84375,460.9375 C 476.4192,460.902 461.19991,439.97972 461.22382,418.56757 C 461.24774,397.15543 476.51296,383.30826 490.9375,383.34375 z"
       style="fill:#ffffff;fill-opacity:1;fill-rule:evenodd;stroke:#ffffff;stroke-width:8;stroke-linecap:round;stroke-linejoin:round;stroke-miterlimit:4;stroke-dasharray:none;stroke-opacity:1" />
    <path
       style="fill:#ffffff;fill-opacity:1;fill-rule:evenodd;stroke:#ffffff;stroke-width:8;stroke-linecap:round;stroke-linejoin:round;stroke-miterlimit:4;stroke-dasharray:none;stroke-opacity:1"
       d="M 478.09201,83.678729 C 481.43592,83.994215 464.92061,189.13477 458.19753,215.01431 C 447.94841,254.46678 457.84086,219.68549 442.81076,282.61623 C 420.78449,374.8399 397.71635,450.52551 387.55583,461.46518 C 372.19255,478.00657 342.54573,472.57198 333.07661,446.00372 C 325.96776,426.05786 322.04007,398.41409 346.6345,381.04989 C 370.97241,363.8668 395.41439,382.7012 395.41438,382.70121 L 477.12326,83.928729 C 477.25693,83.713386 477.61431,83.63366 478.09201,83.678729 z M 365.18576,384.42873 C 350.77374,384.46419 336.10406,401.30513 336.10832,422.69874 L 336.10832,422.76124 C 336.13223,444.1734 350.85497,462.05797 365.27951,462.02248 C 379.70406,461.98698 394.92335,441.0647 394.89944,419.65255 C 394.87552,398.24041 379.6103,384.39324 365.18576,384.42873 z"
       id="path3378"
       sodipodi:nodetypes="csssssccccccssc" />
  </g>
</svg>

<svg xmlns="http://www.w3.org/2000/svg" viewBox="0 0 580 580"><path d="m66.28 1.768c-41.34 0-64.57 21.371-64.57 65.04v450.12c0 40.844 20.895 62.23 62.19 62.23h452.02c41.31 0 62.23-20.315 62.23-62.23v-450.12c0-42.601-20.922-65.04-63.52-65.04-.004 0-448.5-.143-448.35 0z" fill="#111" stroke="#eee" stroke-width="3.408"/><g fill="#fff" fill-rule="evenodd" stroke="#fff"><path d="m269.42 65.31c0 0-118.57-14.962-132.46-7.352-13.885 7.61-92.3 413.74-82.5 430.19 9.804 16.45 138.9 15.601 138.9 15.601l-134.19-19.1 82.37-423.19 127.87 3.848z" stroke-linejoin="round" stroke-linecap="round" stroke-width="9.306"/><g stroke-linecap="square" stroke-width="6.204"><path d="m132.8 97.26l128.64 17.402-130.93-2.478 2.296-14.924z"/><path d="m125.41 145.21l128.64 17.402-130.93-2.478 2.296-14.924z"/><path d="m116.77 193.16l128.64 17.402-130.93-2.478 2.296-14.924z"/><path d="m107.25 241.11l128.64 17.402-130.93-2.478 2.296-14.924z"/><path d="m98.4 289.06l128.64 17.402-130.93-2.478 2.296-14.924z"/><path d="m90.55 337.02l128.64 17.402-130.93-2.478 2.296-14.924z"/><path d="m79.07 384.97l128.64 17.402-130.93-2.478 2.296-14.924z"/><path d="m71.65 432.92l128.64 17.402-130.93-2.478 2.296-14.924z"/></g><g transform="matrix(1.23907 0 0 1.23907-109.93-67.24)" stroke-linejoin="round" stroke-linecap="round" stroke-width="8"><path d="m378.03 82.59c-3.344.315 13.171 105.46 19.894 131.34 10.249 39.452.357 4.671 15.387 67.6 22.03 92.22 45.09 167.91 55.25 178.85 15.363 16.541 45.01 11.11 54.48-15.461 7.109-19.946 11.04-47.59-13.558-64.954-24.338-17.18-48.78 1.651-48.78 1.651l-81.71-298.77c-.134-.215-.491-.295-.969-.25zm112.91 300.75c14.412.035 29.08 16.876 29.08 38.27v.063c-.024 21.412-14.747 39.3-29.17 39.26-14.425-.036-29.644-20.958-29.62-42.37.024-21.412 15.289-35.26 29.714-35.22z"/><path d="m478.09 83.68c3.344.315-13.171 105.46-19.894 131.34-10.249 39.452-.357 4.671-15.387 67.6-22.03 92.22-45.09 167.91-55.25 178.85-15.363 16.541-45.01 11.11-54.48-15.461-7.109-19.946-11.04-47.59 13.558-64.954 24.338-17.18 48.78 1.651 48.78 1.651l81.71-298.77c.134-.215.491-.295.969-.25zm-112.91 300.75c-14.412.035-29.08 16.876-29.08 38.27v.063c.024 21.412 14.747 39.3 29.17 39.26 14.425-.035 29.644-20.958 29.62-42.37-.024-21.412-15.289-35.26-29.714-35.22z"/></g></g></svg>
